actions/24/kdenlive-hide-video.svg

<svg xmlns="http://www.w3.org/2000/svg" viewBox="0 0 24 24" width="24" height="24">
  <defs id="defs3051">
    <style type="text/css" id="current-color-scheme">.ColorScheme-Text {color:#fcfcfc;}</style>
  </defs>
  <g transform="translate(1,1)">
    <path style="fill:currentColor;fill-opacity:1;stroke:none" d="M 3,6 V 17 L 4,16 5,15 H 4 v -1 h 1 v 1 L 6,14 V 12 H 8 L 10.099609,9.9003906 H 6 V 4 H 16 L 17,3 C 17,3 9.6666667,3 6,3 3,3 3,6 3,6 Z M 18.292969,3 3,18.292969 3.7070312,19 19,3.7070312 Z M 4,5 H 5 V 6 H 4 Z m 15,0 -1,1 -1,1 h 1 V 8 H 17 V 7 L 16,8 V 9.9003906 H 14.099609 L 12,12 h 4 v 6 H 6 l -1,1 c 0,0 8,0 11,0 3,0 3,-3 3,-3 z M 4,7 H 5 V 8 H 4 Z m 0,2 h 1 v 1 H 4 Z m 13,0.099609 h 1 V 10.099609 H 17 Z M 4,12 h 1 v 1 H 4 Z m 13,0 h 1 v 1 h -1 z m 0,2 h 1 v 1 h -1 z m 0,2 h 1 v 1 h -1 z" class="ColorScheme-Text"/>
  </g>
</svg>

<svg xmlns="http://www.w3.org/2000/svg" viewBox="0 0 24 24" width="24" height="24">
  <defs id="defs3051">
    <style type="text/css" id="current-color-scheme">
      .ColorScheme-Text {
        color:#eff0f1;
      }
      </style>
  </defs>
  <g transform="translate(1,1)">
    <path style="fill:currentColor;fill-opacity:1;stroke:none" d="M 3 3 L 3 17 L 4 16 L 5 15 L 4 15 L 4 14 L 5 14 L 5 15 L 6 14 L 6 12 L 8 12 L 10.099609 9.9003906 L 6 9.9003906 L 6 4 L 16 4 L 17 3 L 3 3 z M 18.292969 3 L 3 18.292969 L 3.7070312 19 L 19 3.7070312 L 18.292969 3 z M 4 5 L 5 5 L 5 6 L 4 6 L 4 5 z M 19 5 L 18 6 L 17 7 L 18 7 L 18 8 L 17 8 L 17 7 L 16 8 L 16 9.9003906 L 14.099609 9.9003906 L 12 12 L 16 12 L 16 18 L 6 18 L 5 19 L 19 19 L 19 5 z M 4 7 L 5 7 L 5 8 L 4 8 L 4 7 z M 4 9 L 5 9 L 5 10 L 4 10 L 4 9 z M 17 9.0996094 L 18 9.0996094 L 18 10.099609 L 17 10.099609 L 17 9.0996094 z M 4 12 L 5 12 L 5 13 L 4 13 L 4 12 z M 17 12 L 18 12 L 18 13 L 17 13 L 17 12 z M 17 14 L 18 14 L 18 15 L 17 15 L 17 14 z M 17 16 L 18 16 L 18 17 L 17 17 L 17 16 z " class="ColorScheme-Text"/>
  </g>
</svg>
